X: 1
T:Pinolara(),La. CJF.001
T:La Pinolara(). CJF.001
M:2/4
L:1/16
Q:90
S: C.J.Fox MS, 1829/33, Beverley,E.Yorks.
R:Misc.
O:England
A:East Yorkshire
B:Kidson Coll.Mitchell Lib.M1805
N:Sounds a bit Hornpipey .CGP.
Z:vmp.P J Headford 2000
K:G
Bc|dBcA Ggfe|(ed).d.d d2cB|Aced cBAG|FGEF D2 Bc|!
dBcA Ggfe|(ed).d.d dgfe|dBcA BGAF|G2B2G2||!
(cB)|(BA)A4Bc|(ed)(d2 d)gdB|(BA)A4Bc|(ed)d4ag|!
(gb)(fa) (eg)(df)|(ce)(Bd) AcGB|A2A2 (AGAB)|G2B2G2 Bc|!
dBcA Ggfe|(ed).d.d d2cB|Aced cBAG|FGEF D2 Bc|!
dBcA Ggfe|(ed).d.d dgfe|dBcA BGAF|G2B2G2|]
